X: 25312
T: Manchester Gallop
R: jig
M: 6/8
K: Dmajor
FGA D3|FGA D3|d2 d c2 B|A3A2 G|
FGA D3|FGA D3|E2 E E2 F|E3 A2 G|
FGA D3|FGA D3|d2 d c2 B|A3A2 F|
G2 A BAG|F2 A D2 F|E2 G F2 E|D3 ABc|
d2 z d3|c2 z c3|B2 d c2 B|A3A2 F|
G2 A BAG|F2 A D2 F|E2 E E2 F|E3 ABc|
d2 z d3|c2 z c3|B2 d c2 B|A3A2 F|
G2 A BAG|F2 A D2 F|E2 G F2 E|D6||

